Newaita-dark/apps/64/quimup.svg

<svg height="64" viewBox="0 0 64 64" width="64" xmlns="http://www.w3.org/2000/svg" xmlns:xlink="http://www.w3.org/1999/xlink"><linearGradient id="a"><stop offset="0" stop-opacity=".313726"/><stop offset=".222222" stop-opacity=".27451"/><stop offset="1" stop-opacity="0"/></linearGradient><radialGradient id="b" cx="450.908936" cy="189.579361" gradientTransform="matrix(.00000035 -.156265 -.281277 -.0000002 89.046304 127.190659)" gradientUnits="userSpaceOnUse" r="21.166656" xlink:href="#a"/><radialGradient id="c" cx="450.908936" cy="189.579361" gradientTransform="matrix(-.00000035 .156265 .281277 .0000002 -25.540237 -15.054964)" gradientUnits="userSpaceOnUse" r="21.166656" xlink:href="#a"/><radialGradient id="d" cx="450.908936" cy="189.579361" gradientTransform="matrix(-.00000035 -.156265 .281277 -.0000002 -25.540237 127.190659)" gradientUnits="userSpaceOnUse" r="21.166656" xlink:href="#a"/><radialGradient id="e" cx="450.908936" cy="189.579361" gradientTransform="matrix(.00000035 .156265 -.281277 .0000002 89.0463 -15.054965)" gradientUnits="userSpaceOnUse" r="21.166656" xlink:href="#a"/><linearGradient id="f" gradientTransform="matrix(.0267201 0 0 .125012 24.930772 26.877567)" gradientUnits="userSpaceOnUse" x1="255.323059" x2="255.323044" y1="233.5" y2="254.666656"><stop offset="0" stop-opacity=".27451"/><stop offset="1" stop-opacity="0"/></linearGradient><linearGradient id="g" gradientUnits="userSpaceOnUse" x1="254" x2="254" y1="-168.666672" y2="233.5"><stop offset="0" stop-color="#7986cb"/><stop offset="1" stop-color="#5c6bc0"/></linearGradient><linearGradient id="h" gradientUnits="userSpaceOnUse" x1="31.753048" x2="31.753048" y1="56.067868" y2="5.79221000013"><stop offset="0" stop-color="#29b6f6"/><stop offset="1" stop-color="#4fc3f7"/></linearGradient><path d="m36.382812 56.066406h5.292969v-2.644531h-5.292969zm0 0" fill="url(#b)"/><path d="m27.121094 56.066406h-5.289063v2.648438h5.289063zm0 0" fill="url(#c)"/><path d="m27.121094 56.066406h-5.289063v-2.644531h5.289063zm0 0" fill="url(#d)"/><path d="m36.382812 56.066406h5.292969v2.648438h-5.292969zm0 0" fill="url(#e)"/><path d="m27.121094 55.40625h9.261718v3.308594h-9.261718zm0 0" fill="url(#f)"/><path d="m254.006994-168.660675c111.051895 0 201.074548 90.022653 201.074548 201.074548s-90.022653 201.074548-201.074548 201.074548c-111.051896 0-201.105796-90.022653-201.105796-201.074548s90.0539-201.074548 201.105796-201.074548zm0 0" fill="url(#g)" stroke="#333" stroke-linecap="round" stroke-width="3" transform="matrix(.125012 0 0 .125012 0 26.877566)"/><path d="m31.753906 56.066406c-13.925781 0-25.140625-11.210937-25.140625-25.136718 0-.082032.003907-.164063.003907-.246094.128906 13.8125 11.292968 24.890625 25.136718 24.890625s25.003906-11.078125 25.136719-24.890625v.246094c0 13.925781-11.210937 25.136718-25.136719 25.136718zm0 0" fill-opacity=".196078"/><path d="m31.753906 5.792969c-13.925781 0-25.140625 11.210937-25.140625 25.136719 0 .082031.003907.164062.003907.246093.128906-13.8125 11.292968-24.890625 25.136718-24.890625s25.003906 11.078125 25.136719 24.890625c0-.082031 0-.164062 0-.246093 0-13.925782-11.210937-25.136719-25.136719-25.136719zm0 0" fill="#fff" fill-opacity=".392157"/><path d="m31.753906 5.605469c-14.027344 0-25.328125 11.296875-25.328125 25.324219 0 14.027343 11.300781 25.324218 25.328125 25.324218s25.324219-11.296875 25.324219-25.324218c0-14.027344-11.296875-25.324219-25.324219-25.324219zm0 .375c13.824219 0 24.949219 11.125 24.949219 24.949219 0 13.824218-11.125 24.949218-24.949219 24.949218-13.828125 0-24.953125-11.125-24.953125-24.949218 0-13.824219 11.125-24.949219 24.953125-24.949219zm0 0" fill="#212121"/><path d="m15.875 56.066406 13.230469-19.84375-10.582031-6.617187 29.105468-23.8125-13.230468 22.492187 10.585937 6.613282zm0 0" fill="url(#h)"/><path d="m47.628906 5.792969-29.105468 23.8125.457031.289062 27.898437-22.828125zm-12.945312 22.667969-.285156.484374 10.097656 6.308594.488281-.355468zm-5.886719 8.226562-12.921875 19.378906.859375-.621094 12.371094-18.5625zm0 0" fill="#fff" fill-opacity=".392157"/><path d="m45.308594 9.734375-10.910156 18.550781.570312.355469 10.902344-18.535156c-.183594-.125-.371094-.25-.5625-.371094zm-25.871094 20.445313-.914062.75 9.960937 6.226562.621094-.933594zm24.566406 5.429687-24.089844 17.519531c.355469.191406.714844.371094 1.078126.542969l23.992187-17.449219zm0 0" fill-opacity=".235294"/><path d="m126.987873 233.488421 105.833644-158.734841-84.648167-52.932445 232.821517-190.48181-105.833644 179.920318 84.679414 52.901198zm0 0" fill="none" stroke="#212121" stroke-width="3" transform="matrix(.125012 0 0 .125012 0 26.877566)"/></svg>

<?xml version="1.0" encoding="UTF-8"?>
<svg xmlns="http://www.w3.org/2000/svg" xmlns:xlink="http://www.w3.org/1999/xlink" width="64px" height="64px" viewBox="0 0 64 64" version="1.1">
<defs>
<radialGradient id="radial0" gradientUnits="userSpaceOnUse" cx="450.908936" cy="189.579361" fx="450.908936" fy="189.579361" r="21.166656" gradientTransform="matrix(0.000000348341,-0.156265,-0.281277,-0.000000203077,89.046304,127.190659)">
<stop offset="0" style="stop-color:rgb(0%,0%,0%);stop-opacity:0.313726;"/>
<stop offset="0.222222" style="stop-color:rgb(0%,0%,0%);stop-opacity:0.27451;"/>
<stop offset="1" style="stop-color:rgb(0%,0%,0%);stop-opacity:0;"/>
</radialGradient>
<radialGradient id="radial1" gradientUnits="userSpaceOnUse" cx="450.908936" cy="189.579361" fx="450.908936" fy="189.579361" r="21.166656" gradientTransform="matrix(-0.000000348341,0.156265,0.281277,0.000000203077,-25.540237,-15.054964)">
<stop offset="0" style="stop-color:rgb(0%,0%,0%);stop-opacity:0.313726;"/>
<stop offset="0.222222" style="stop-color:rgb(0%,0%,0%);stop-opacity:0.27451;"/>
<stop offset="1" style="stop-color:rgb(0%,0%,0%);stop-opacity:0;"/>
</radialGradient>
<radialGradient id="radial2" gradientUnits="userSpaceOnUse" cx="450.908936" cy="189.579361" fx="450.908936" fy="189.579361" r="21.166656" gradientTransform="matrix(-0.000000348341,-0.156265,0.281277,-0.000000203077,-25.540237,127.190659)">
<stop offset="0" style="stop-color:rgb(0%,0%,0%);stop-opacity:0.313726;"/>
<stop offset="0.222222" style="stop-color:rgb(0%,0%,0%);stop-opacity:0.27451;"/>
<stop offset="1" style="stop-color:rgb(0%,0%,0%);stop-opacity:0;"/>
</radialGradient>
<radialGradient id="radial3" gradientUnits="userSpaceOnUse" cx="450.908936" cy="189.579361" fx="450.908936" fy="189.579361" r="21.166656" gradientTransform="matrix(0.000000348341,0.156265,-0.281277,0.000000203077,89.0463,-15.054965)">
<stop offset="0" style="stop-color:rgb(0%,0%,0%);stop-opacity:0.313726;"/>
<stop offset="0.222222" style="stop-color:rgb(0%,0%,0%);stop-opacity:0.27451;"/>
<stop offset="1" style="stop-color:rgb(0%,0%,0%);stop-opacity:0;"/>
</radialGradient>
<linearGradient id="linear0" gradientUnits="userSpaceOnUse" x1="255.323059" y1="233.5" x2="255.323044" y2="254.666656" gradientTransform="matrix(0.0267201,0,0,0.125012,24.930772,26.877567)">
<stop offset="0" style="stop-color:rgb(0%,0%,0%);stop-opacity:0.27451;"/>
<stop offset="1" style="stop-color:rgb(0%,0%,0%);stop-opacity:0;"/>
</linearGradient>
<linearGradient id="linear1" gradientUnits="userSpaceOnUse" x1="254" y1="-168.666672" x2="254" y2="233.5" >
<stop offset="0" style="stop-color:rgb(47.450981%,52.549022%,79.607844%);stop-opacity:1;"/>
<stop offset="1" style="stop-color:rgb(36.078432%,41.960785%,75.294119%);stop-opacity:1;"/>
</linearGradient>
<linearGradient id="linear2" gradientUnits="userSpaceOnUse" x1="254" y1="233.5" x2="254" y2="-168.666656" gradientTransform="matrix(0.125012,0,0,0.125012,0,26.877566)">
<stop offset="0" style="stop-color:rgb(16.078432%,71.372551%,96.470588%);stop-opacity:1;"/>
<stop offset="1" style="stop-color:rgb(30.980393%,76.47059%,96.862745%);stop-opacity:1;"/>
</linearGradient>
</defs>
<g id="surface1">
<path style=" stroke:none;fill-rule:nonzero;fill:url(#radial0);" d="M 36.382812 56.066406 L 41.675781 56.066406 L 41.675781 53.421875 L 36.382812 53.421875 Z M 36.382812 56.066406 "/>
<path style=" stroke:none;fill-rule:nonzero;fill:url(#radial1);" d="M 27.121094 56.066406 L 21.832031 56.066406 L 21.832031 58.714844 L 27.121094 58.714844 Z M 27.121094 56.066406 "/>
<path style=" stroke:none;fill-rule:nonzero;fill:url(#radial2);" d="M 27.121094 56.066406 L 21.832031 56.066406 L 21.832031 53.421875 L 27.121094 53.421875 Z M 27.121094 56.066406 "/>
<path style=" stroke:none;fill-rule:nonzero;fill:url(#radial3);" d="M 36.382812 56.066406 L 41.675781 56.066406 L 41.675781 58.714844 L 36.382812 58.714844 Z M 36.382812 56.066406 "/>
<path style=" stroke:none;fill-rule:nonzero;fill:url(#linear0);" d="M 27.121094 55.40625 L 36.382812 55.40625 L 36.382812 58.714844 L 27.121094 58.714844 Z M 27.121094 55.40625 "/>
<path style="fill-rule:nonzero;fill:url(#linear1);stroke-width:3;stroke-linecap:round;stroke-linejoin:miter;stroke:rgb(20%,20%,20%);stroke-opacity:1;stroke-miterlimit:4;" d="M 254.006994 -168.660675 C 365.058889 -168.660675 455.081542 -78.638022 455.081542 32.413873 C 455.081542 143.465768 365.058889 233.488421 254.006994 233.488421 C 142.955098 233.488421 52.901198 143.465768 52.901198 32.413873 C 52.901198 -78.638022 142.955098 -168.660675 254.006994 -168.660675 Z M 254.006994 -168.660675 " transform="matrix(0.125012,0,0,0.125012,0,26.877566)"/>
<path style=" stroke:none;fill-rule:nonzero;fill:rgb(0%,0%,0%);fill-opacity:0.196078;" d="M 31.753906 56.066406 C 17.828125 56.066406 6.613281 44.855469 6.613281 30.929688 C 6.613281 30.847656 6.617188 30.765625 6.617188 30.683594 C 6.746094 44.496094 17.910156 55.574219 31.753906 55.574219 C 45.597656 55.574219 56.757812 44.496094 56.890625 30.683594 C 56.890625 30.765625 56.890625 30.847656 56.890625 30.929688 C 56.890625 44.855469 45.679688 56.066406 31.753906 56.066406 Z M 31.753906 56.066406 "/>
<path style=" stroke:none;fill-rule:nonzero;fill:rgb(100%,100%,100%);fill-opacity:0.392157;" d="M 31.753906 5.792969 C 17.828125 5.792969 6.613281 17.003906 6.613281 30.929688 C 6.613281 31.011719 6.617188 31.09375 6.617188 31.175781 C 6.746094 17.363281 17.910156 6.285156 31.753906 6.285156 C 45.597656 6.285156 56.757812 17.363281 56.890625 31.175781 C 56.890625 31.09375 56.890625 31.011719 56.890625 30.929688 C 56.890625 17.003906 45.679688 5.792969 31.753906 5.792969 Z M 31.753906 5.792969 "/>
<path style=" stroke:none;fill-rule:nonzero;fill:rgb(12.941177%,12.941177%,12.941177%);fill-opacity:1;" d="M 31.753906 5.605469 C 17.726562 5.605469 6.425781 16.902344 6.425781 30.929688 C 6.425781 44.957031 17.726562 56.253906 31.753906 56.253906 C 45.78125 56.253906 57.078125 44.957031 57.078125 30.929688 C 57.078125 16.902344 45.78125 5.605469 31.753906 5.605469 Z M 31.753906 5.980469 C 45.578125 5.980469 56.703125 17.105469 56.703125 30.929688 C 56.703125 44.753906 45.578125 55.878906 31.753906 55.878906 C 17.925781 55.878906 6.800781 44.753906 6.800781 30.929688 C 6.800781 17.105469 17.925781 5.980469 31.753906 5.980469 Z M 31.753906 5.980469 "/>
<path style=" stroke:none;fill-rule:nonzero;fill:url(#linear2);" d="M 15.875 56.066406 L 29.105469 36.222656 L 18.523438 29.605469 L 47.628906 5.792969 L 34.398438 28.285156 L 44.984375 34.898438 Z M 15.875 56.066406 "/>
<path style=" stroke:none;fill-rule:nonzero;fill:rgb(100%,100%,100%);fill-opacity:0.392157;" d="M 47.628906 5.792969 L 18.523438 29.605469 L 18.980469 29.894531 L 46.878906 7.066406 Z M 34.683594 28.460938 L 34.398438 28.945312 L 44.496094 35.253906 L 44.984375 34.898438 Z M 28.796875 36.6875 L 15.875 56.066406 L 16.734375 55.445312 L 29.105469 36.882812 Z M 28.796875 36.6875 "/>
<path style=" stroke:none;fill-rule:nonzero;fill:rgb(0%,0%,0%);fill-opacity:0.235294;" d="M 45.308594 9.734375 L 34.398438 28.285156 L 34.96875 28.640625 L 45.871094 10.105469 C 45.6875 9.980469 45.5 9.855469 45.308594 9.734375 Z M 19.4375 30.179688 L 18.523438 30.929688 L 28.484375 37.15625 L 29.105469 36.222656 Z M 44.003906 35.609375 L 19.914062 53.128906 C 20.269531 53.320312 20.628906 53.5 20.992188 53.671875 L 44.984375 36.222656 Z M 44.003906 35.609375 "/>
<path style="fill:none;stroke-width:3;stroke-linecap:butt;stroke-linejoin:miter;stroke:rgb(12.941177%,12.941177%,12.941177%);stroke-opacity:1;stroke-miterlimit:4;" d="M 126.987873 233.488421 L 232.821517 74.75358 L 148.17335 21.821135 L 380.994867 -168.660675 L 275.161223 11.259643 L 359.840637 64.160841 Z M 126.987873 233.488421 " transform="matrix(0.125012,0,0,0.125012,0,26.877566)"/>
</g>
</svg>
